X:1
T:Les Forgerons Aiment Le Vin
C:traditionell
R:bourree a trois temps
A:France
F:http://simonwascher.info
Z:abc transcription Simon Wascher
M:3/8
L:1/16
K:C
B2-BAG2 | F2G4 | A3Bc2 | dedcBA |
B2-BAG2 | F2G4 | A2-ABc2 | d6 :|
d2ded2 | d2c4 | ABcAdc | B2A4 |
d2ded2 | d2c4 | AcB2A2 | G6 :|
